X: 119
T:Prairie Spring
M:3/4
L:1/8
C:Jay Ungar
S:Transcribed from Harvest Home by S. C.
R:Waltz
K:G
.D2.E2|:(G4-GA|G4) A-B|(d4-de|d3)A B-d|e4 d-B|d4 ((4GAGF| E4) ((3EFE| D2
) .D2.E2|!
(G4-GA|G4) A-B|d4((4dedB|d4) ((3ABd|e4) dB|[1A4 (GE|G4) .D.E:|[2A4(GE|G3
) A B-d||!
(e3d e-f)|e2 d2 ((4BdBA|d4)de|d4 "(Slide)"gf|e4 d-B|"(Slide)"d4 ((4BdBA|
G2)F2E2|D2 .D2 .E2:|
